X:1
T:Lord Rendal
M:4/4
L:1/8
K:G
 G2 BB BA G2| d2 dd d4| B2 BB BA G2| B2 AG A4| f3 df e2 z| g3 fe dG A|\
 B2 cA G2 AB| c2 EE E2| AB| A2 GF G2 z2|
